X:2171
T:Farewell and adieu to you Spanish ladies 
C:T Kermode 
C:Traditional
O:Isle of Man
Z:Clague collection
B:Kiaull Vannin #171
N:See KV 197
L:1/4
M:3/4 
Q:120 
K:D 
F|F B ^A|B2 c|d c B|B/A/ F F|F B ^A|B2 c|d e d|c2 c| 
d c d |e d e|f B B|B/A/ F f/d/|d c B|B/A/ F E/E/|F d c|B2|| 

